X: 3
T: Galen's Arrival
M:C|
C: Alasdair Fraser/Ptld Collect
Q:1/4=140
L: 1/8
K:G
GA |: "G" B3 A BGdB | "Am" c3 B cAec | "G" Bdgd "C" ecAG | "D" FGAB cDBG |
"G" B3 A BGdB | "Am" c3 B cAec | "G" Bdgd "D" ecAF |1 "G" G2 GF G2 :|2 "G" G2 GF G |
|: ABd | "Em" g2 gf gbag | "D" f2 fe fddB | "Am" c2 cB cedc | "G" Bdgd "D" fgaf |
"Em" g2 gf gbag | "D" f2 fe fddB | "C" c2 cB cedc |1 "D" BGAF "G" G :|2 "D" BGAF "G" G2 |]

